!!!COM: Robert Franz
!!!CNT: Deutscher
!!!TXO: Deutsche 
!!!OTL: "Wandl' ich in dem Wald des Abends"
!!!OPS: Op. 39
!!!ONM: No. 4
!!!ONB: Original key: B Major
!!!LYR: H. Heine
!!!ENC: Brian Bice
!!!YOR: Vocal Album, G. Schirmer, Inc., 1907
!!!ODT: 1867/
!!NB: Vocal melody and text only encoded.
**kern	**silbe
*clefG2	*
*k[f#]	*
*M2/4	*
=0	=0
4r	.
{8b	{Wandl'
8a	ich
=1	=1
8g	in
8f#	dem
(16e	Wald
16f#	|
16g)	|
16B	des
=2	=2
8d	A-
8c}	-bends,}
{8cc	{in
8b	dem
=3	=3
8a	tra2u-
8g	-me-
(16f#	-ri-
16g)	|
(16a	-schen
16f#)	|
=4	=4
4d}	Wald,}
{8dd	{im-
8f#	-mer
=5	=5
(16g	wan
16a)	|
8b	delt
8b	mir
8d#	zur
=6	=6
(16e	Sei-
16f#)	|
8g}	-te}
{8f#	{dei-
8e	-ne
=7	=7
(8dn	za2rt-
16a)	|
16g	-li-
8f#	-che
8e	Ge-
=8	=8
4d}	-stalt.}
{8b	{Ist
8a	es
=9	=9
8g	nicht
8f#	dein
(16e	wei-
16f#	|
16g)	|
16B	-sser
=10	=10
8d	Schlei-
8c}	-er?}
{8cc	{nicht
8b	dein
=11	=11
8a	sanf-
8g	-ter
(16f#	An-
16g)	|
(16a	-ge-
16f#)	|
=12	=12
4d}	-sicht?}
{8dd	{O-
8f#	-der
=13	=13
(16g	ist
16a)	|
8b	es
8b	nur
8d#	der
=14	=14
(16e	Mond-
16f#)	|
8g}	-schein,}
{8f#	{der
8e	durch
=15	=15
(8dn	Tan-
16a)	|
16g	-nen-
8f#	-dun-
8e	-kel
=16	=16
4d}	bricht?}
{8b	{Sind
8a	es
=17	=17
8g	mei-
8f#	-ne
(16e	eig-
16f#	|
16g)	|
16B	-nen
=18	=18
8d	Thra2-
8c}	-nen,}
{8cc	{die
8b	ich
=19	=19
8a	lei-
8g	-se
(16f#	rin-
16g	|
16a)	|
16f#	-nen
=20	=20
4d#}	ho2r'?}
{8e	{O-
8f#	-der
=21	=21
(16g	gehst
16a)	|
8b	du,
(8cc	Lieb-
16b)	|
16a	-ste,
=22	=22
(16g	wirk-
16a)	|
8b}	-lich}
{8e	{wei-
8f#	-nend
=23	=23
8g	ne-
8f#	-ben
8e	mir
(16f#	ein-
16g)	|
=24	=24
4f}	-her?}
*-	*-
